src/assets/images/path.svg

<svg width="1370" height="18" viewBox="0 0 1370 18" fill="none" xmlns="http://www.w3.org/2000/svg">
<path d="M1 9C19.24 -1.66667 28.36 -1.66667 46.6 9C64.84 19.6667 73.96 19.6667 92.2 9C110.44 -1.66667 119.56 -1.66667 137.8 9C156.04 19.6667 165.16 19.6667 183.4 9C201.64 -1.66667 210.76 -1.66667 229 9C247.24 19.6667 256.36 19.6667 274.6 9C292.84 -1.66667 301.96 -1.66667 320.2 9C338.44 19.6667 347.56 19.6667 365.8 9C384.04 -1.66667 393.16 -1.66667 411.4 9C429.64 19.6667 438.76 19.6667 457 9C475.24 -1.66667 484.36 -1.66667 502.6 9C520.84 19.6667 529.96 19.6667 548.2 9C566.44 -1.66667 575.56 -1.66667 593.8 9C612.04 19.6667 621.16 19.6667 639.4 9C657.64 -1.66667 666.76 -1.66667 685 9C703.24 19.6667 712.36 19.6667 730.6 9C748.84 -1.66667 757.96 -1.66667 776.2 9C794.44 19.6667 803.56 19.6667 821.8 9C840.04 -1.66667 849.16 -1.66667 867.4 9C885.64 19.6667 894.76 19.6667 913 9C931.24 -1.66667 940.36 -1.66667 958.6 9C976.84 19.6667 985.96 19.6667 1004.2 9C1022.44 -1.66667 1031.56 -1.66667 1049.8 9C1068.04 19.6667 1077.16 19.6667 1095.4 9C1113.64 -1.66667 1122.76 -1.66667 1141 9C1159.24 19.6667 1168.36 19.6667 1186.6 9C1204.84 -1.66667 1213.96 -1.66667 1232.2 9C1250.44 19.6667 1259.56 19.6667 1277.8 9C1296.04 -1.66667 1305.16 -1.66667 1323.4 9C1341.64 19.6667 1350.76 19.6667 1369 9" stroke="#FF1A00" stroke-width="2"/>
</svg>

<svg width="1370" height="18" fill="none" xmlns="http://www.w3.org/2000/svg"><path d="M1 9C19.24-1.667 28.36-1.667 46.6 9c18.24 10.667 27.36 10.667 45.6 0 18.24-10.667 27.36-10.667 45.6 0 18.24 10.667 27.36 10.667 45.6 0C201.64-1.667 210.76-1.667 229 9c18.24 10.667 27.36 10.667 45.6 0 18.24-10.667 27.36-10.667 45.6 0 18.24 10.667 27.36 10.667 45.6 0 18.24-10.667 27.36-10.667 45.6 0 18.24 10.667 27.36 10.667 45.6 0 18.24-10.667 27.36-10.667 45.6 0 18.24 10.667 27.36 10.667 45.6 0 18.24-10.667 27.36-10.667 45.6 0 18.24 10.667 27.36 10.667 45.6 0C657.64-1.667 666.76-1.667 685 9c18.24 10.667 27.36 10.667 45.6 0 18.24-10.667 27.36-10.667 45.6 0 18.24 10.667 27.36 10.667 45.6 0 18.24-10.667 27.36-10.667 45.6 0 18.24 10.667 27.36 10.667 45.6 0 18.24-10.667 27.36-10.667 45.6 0 18.24 10.667 27.36 10.667 45.6 0 18.24-10.667 27.36-10.667 45.6 0 18.24 10.667 27.36 10.667 45.6 0 18.24-10.667 27.36-10.667 45.6 0 18.24 10.667 27.36 10.667 45.6 0 18.24-10.667 27.36-10.667 45.6 0 18.24 10.667 27.36 10.667 45.6 0 18.24-10.667 27.36-10.667 45.6 0 18.24 10.667 27.36 10.667 45.6 0" stroke="#FF1A00" stroke-width="2"/></svg>
